X:80
T: ES WAR EIN KOENIG IN THULE
N: B0110A
O: Europa, Mitteleuropa, Deutschland
R: Ballade, Romanze
M: 6/8
L: 1/16
K: G
D2 | G4_B2d3BG2 | A6D2z2
d2 | G4G2A3GA2 | _B6z4
A2 | d4c2_B3cA2 | G6_E2z2
GA | _B3AG2G4F2 | G6z4

@@@ Tune index: 1883
